public/assets/home/60f8d0c6aa527d780201899a_Ear.svg

<svg width="79" height="77" viewBox="0 0 79 77" fill="none" xmlns="http://www.w3.org/2000/svg">
<g filter="url(#filter0_ii)">
<path fill-rule="evenodd" clip-rule="evenodd" d="M39.2469 3.28271C33.1218 3.28271 28.1564 8.24811 28.1564 14.3732V25.4289L17.3279 21.9105C11.5026 20.0177 5.24582 23.2057 3.35305 29.0311C1.46028 34.8564 4.64828 41.1132 10.4736 43.006L21.4723 46.5796L14.7139 55.8818C11.1136 60.8371 12.2121 67.7728 17.1674 71.3731C22.1228 74.9733 29.0584 73.8748 32.6587 68.9195L38.9156 60.3076L45.3661 69.186C48.9664 74.1413 55.9021 75.2398 60.8574 71.6396C65.8127 68.0393 66.9113 61.1036 63.311 56.1483L56.5347 46.8216L67.4807 43.265C73.3061 41.3723 76.494 35.1155 74.6013 29.2901C72.7085 23.4648 66.4517 20.2768 60.6264 22.1696L50.3374 25.5127V14.3732C50.3374 8.24811 45.372 3.28271 39.2469 3.28271Z" fill="#CAE9FA"/>
</g>
<path d="M28.1564 25.4289L27.3255 27.9859C28.1441 28.2519 29.0404 28.1099 29.7367 27.604C30.433 27.0982 30.845 26.2895 30.845 25.4289H28.1564ZM17.3279 21.9105L16.4971 24.4675L16.4971 24.4675L17.3279 21.9105ZM3.35305 29.0311L5.91008 29.8619L3.35305 29.0311ZM10.4736 43.006L11.3044 40.4489H11.3044L10.4736 43.006ZM21.4723 46.5796L23.6474 48.16C24.1533 47.4637 24.2952 46.5673 24.0293 45.7488C23.7633 44.9303 23.1216 44.2886 22.3031 44.0226L21.4723 46.5796ZM14.7139 55.8818L16.889 57.4621H16.889L14.7139 55.8818ZM17.1674 71.3731L15.5871 73.5482H15.5871L17.1674 71.3731ZM32.6587 68.9195L30.4836 67.3392H30.4836L32.6587 68.9195ZM38.9156 60.3076L41.0907 58.7273C40.5849 58.031 39.7762 57.619 38.9156 57.619C38.055 57.619 37.2463 58.031 36.7405 58.7273L38.9156 60.3076ZM45.3661 69.186L43.191 70.7663V70.7663L45.3661 69.186ZM60.8574 71.6396L62.4377 73.8147L60.8574 71.6396ZM63.311 56.1483L61.1359 57.7286L63.311 56.1483ZM56.5347 46.8216L55.7039 44.2646C54.8854 44.5305 54.2437 45.1722 53.9777 45.9908C53.7118 46.8093 53.8537 47.7057 54.3596 48.4019L56.5347 46.8216ZM67.4807 43.265L68.3115 45.8221L67.4807 43.265ZM74.6013 29.2901L72.0442 30.121L74.6013 29.2901ZM60.6264 22.1696L59.7956 19.6126L60.6264 22.1696ZM50.3374 25.5127H47.6488C47.6488 26.3733 48.0608 27.1819 48.7571 27.6878C49.4534 28.1937 50.3497 28.3357 51.1682 28.0697L50.3374 25.5127ZM30.845 14.3732C30.845 9.73299 34.6066 5.97133 39.2469 5.97133V0.594102C31.6369 0.594102 25.4678 6.76323 25.4678 14.3732H30.845ZM30.845 25.4289V14.3732H25.4678V25.4289H30.845ZM28.9872 22.8719L18.1588 19.3535L16.4971 24.4675L27.3255 27.9859L28.9872 22.8719ZM18.1588 19.3535C10.9212 17.0019 3.14765 20.9627 0.796031 28.2003L5.91008 29.8619C7.34399 25.4488 12.084 23.0336 16.4971 24.4675L18.1588 19.3535ZM0.796031 28.2003C-1.55559 35.4378 2.40525 43.2114 9.64279 45.563L11.3044 40.4489C6.8913 39.015 4.47616 34.275 5.91008 29.8619L0.796031 28.2003ZM9.64279 45.563L20.6414 49.1367L22.3031 44.0226L11.3044 40.4489L9.64279 45.563ZM19.2971 44.9993L12.5387 54.3015L16.889 57.4621L23.6474 48.16L19.2971 44.9993ZM12.5387 54.3015C8.06567 60.4581 9.43048 69.0751 15.5871 73.5482L18.7478 69.1979C14.9937 66.4705 14.1615 61.2162 16.889 57.4621L12.5387 54.3015ZM15.5871 73.5482C21.7437 78.0212 30.3608 76.6564 34.8338 70.4998L30.4836 67.3392C27.7561 71.0932 22.5018 71.9254 18.7478 69.1979L15.5871 73.5482ZM34.8338 70.4998L41.0907 61.8879L36.7405 58.7273L30.4836 67.3392L34.8338 70.4998ZM36.7405 61.8879L43.191 70.7663L47.5413 67.6057L41.0907 58.7273L36.7405 61.8879ZM43.191 70.7663C47.6641 76.923 56.2811 78.2878 62.4377 73.8147L59.2771 69.4644C55.523 72.1919 50.2687 71.3597 47.5413 67.6057L43.191 70.7663ZM62.4377 73.8147C68.5944 69.3417 69.9592 60.7246 65.4861 54.568L61.1359 57.7286C63.8633 61.4827 63.0311 66.737 59.2771 69.4644L62.4377 73.8147ZM65.4861 54.568L58.7099 45.2413L54.3596 48.4019L61.1359 57.7286L65.4861 54.568ZM57.3656 49.3786L68.3115 45.8221L66.6499 40.708L55.7039 44.2646L57.3656 49.3786ZM68.3115 45.8221C75.5491 43.4704 79.5099 35.6969 77.1583 28.4593L72.0442 30.121C73.4782 34.5341 71.063 39.2741 66.6499 40.708L68.3115 45.8221ZM77.1583 28.4593C74.8067 21.2218 67.0331 17.261 59.7956 19.6126L61.4572 24.7266C65.8703 23.2927 70.6103 25.7078 72.0442 30.121L77.1583 28.4593ZM59.7956 19.6126L49.5066 22.9557L51.1682 28.0697L61.4572 24.7266L59.7956 19.6126ZM47.6488 14.3732V25.5127H53.026V14.3732H47.6488ZM39.2469 5.97133C43.8871 5.97133 47.6488 9.73299 47.6488 14.3732H53.026C53.026 6.76323 46.8569 0.594102 39.2469 0.594102V5.97133Z" fill="#1F2024"/>
<g filter="url(#filter1_ii)">
<circle cx="36.415" cy="40.2507" r="8.73799" fill="#F9E174"/>
</g>
<circle cx="36.415" cy="40.2507" r="8.73799" stroke="#1F2024" stroke-width="5.37723"/>
<defs>
<filter id="filter0_ii" x="0.11792" y="0.594238" width="77.7185" height="75.8532" filterUnits="userSpaceOnUse" color-interpolation-filters="sRGB">
<feFlood flood-opacity="0" result="BackgroundImageFix"/>
<feBlend mode="normal" in="SourceGraphic" in2="BackgroundImageFix" result="shape"/>
<feColorMatrix in="SourceAlpha" type="matrix" values="0 0 0 0 0 0 0 0 0 0 0 0 0 0 0 0 0 0 127 0" result="hardAlpha"/>
<feOffset dx="10.7545"/>
<feComposite in2="hardAlpha" operator="arithmetic" k2="-1" k3="1"/>
<feColorMatrix type="matrix" values="0 0 0 0 0 0 0 0 0 0 0 0 0 0 0 0 0 0 0.25 0"/>
<feBlend mode="normal" in2="shape" result="effect1_innerShadow"/>
<feColorMatrix in="SourceAlpha" type="matrix" values="0 0 0 0 0 0 0 0 0 0 0 0 0 0 0 0 0 0 127 0" result="hardAlpha"/>
<feOffset dx="-10.7545" dy="5.37723"/>
<feComposite in2="hardAlpha" operator="arithmetic" k2="-1" k3="1"/>
<feColorMatrix type="matrix" values="0 0 0 0 1 0 0 0 0 1 0 0 0 0 1 0 0 0 0.25 0"/>
<feBlend mode="normal" in2="effect1_innerShadow" result="effect2_innerShadow"/>
</filter>
<filter id="filter1_ii" x="24.9884" y="28.8242" width="22.8532" height="22.8532" filterUnits="userSpaceOnUse" color-interpolation-filters="sRGB">
<feFlood flood-opacity="0" result="BackgroundImageFix"/>
<feBlend mode="normal" in="SourceGraphic" in2="BackgroundImageFix" result="shape"/>
<feColorMatrix in="SourceAlpha" type="matrix" values="0 0 0 0 0 0 0 0 0 0 0 0 0 0 0 0 0 0 127 0" result="hardAlpha"/>
<feOffset dx="10.7545"/>
<feComposite in2="hardAlpha" operator="arithmetic" k2="-1" k3="1"/>
<feColorMatrix type="matrix" values="0 0 0 0 0 0 0 0 0 0 0 0 0 0 0 0 0 0 0.25 0"/>
<feBlend mode="normal" in2="shape" result="effect1_innerShadow"/>
<feColorMatrix in="SourceAlpha" type="matrix" values="0 0 0 0 0 0 0 0 0 0 0 0 0 0 0 0 0 0 127 0" result="hardAlpha"/>
<feOffset dx="-10.7545" dy="5.37723"/>
<feComposite in2="hardAlpha" operator="arithmetic" k2="-1" k3="1"/>
<feColorMatrix type="matrix" values="0 0 0 0 1 0 0 0 0 1 0 0 0 0 1 0 0 0 0.25 0"/>
<feBlend mode="normal" in2="effect1_innerShadow" result="effect2_innerShadow"/>
</filter>
</defs>
</svg>

<svg xmlns="http://www.w3.org/2000/svg" width="79" height="77" fill="none"><g filter="url(#a)"><path fill="#CAE9FA" fill-rule="evenodd" d="M39.247 3.283c-6.125 0-11.09 4.965-11.09 11.09V25.43l-10.83-3.518c-5.824-1.893-12.081 1.295-13.974 7.12-1.893 5.825 1.295 12.082 7.12 13.975l11 3.574-6.76 9.302c-3.6 4.955-2.5 11.89 2.454 15.491 4.956 3.6 11.891 2.502 15.492-2.454l6.257-8.611 6.45 8.878c3.6 4.955 10.536 6.054 15.491 2.454 4.956-3.6 6.054-10.536 2.454-15.492l-6.776-9.326 10.946-3.557c5.825-1.893 9.013-8.15 7.12-13.975-1.892-5.825-8.15-9.013-13.975-7.12l-10.289 3.343v-11.14c0-6.125-4.965-11.09-11.09-11.09Z" clip-rule="evenodd"/></g><path fill="#1F2024" d="m28.156 25.429-.83 2.557a2.688 2.688 0 0 0 3.519-2.557h-2.689ZM17.328 21.91l-.83 2.556.83-2.556ZM3.353 29.03l2.557.83-2.557-.83Zm7.12 13.975.831-2.557-.83 2.557Zm11 3.574 2.174 1.58a2.689 2.689 0 0 0-1.344-4.137l-.83 2.557Zm-6.76 9.302 2.176 1.58-2.175-1.58Zm2.454 15.491-1.58 2.175 1.58-2.175ZM32.66 68.92l-2.175-1.58 2.175 1.58Zm6.257-8.611 2.175-1.58a2.688 2.688 0 0 0-4.35 0l2.175 1.58Zm6.45 8.878-2.175 1.58 2.175-1.58Zm15.491 2.454 1.58 2.175-1.58-2.175Zm2.454-15.492-2.175 1.58 2.175-1.58Zm-6.776-9.326-.831-2.557a2.688 2.688 0 0 0-1.344 4.137l2.175-1.58Zm10.946-3.557.83 2.557-.83-2.557ZM74.6 29.29l-2.557.831 2.557-.83Zm-13.975-7.12-.83-2.557.83 2.557Zm-10.289 3.343H47.65a2.689 2.689 0 0 0 3.52 2.557l-.832-2.557Zm-19.492-11.14a8.402 8.402 0 0 1 8.402-8.402V.594c-7.61 0-13.78 6.17-13.78 13.78h5.378Zm0 11.056V14.373h-5.377V25.43h5.377Zm-1.858-2.557L18.16 19.354l-1.662 5.114 10.829 3.518 1.661-5.114ZM18.16 19.354C10.92 17.002 3.148 20.962.796 28.2l5.114 1.662a8.402 8.402 0 0 1 10.587-5.394l1.662-5.114ZM.796 28.2c-2.352 7.238 1.61 15.011 8.847 17.363l1.661-5.114A8.402 8.402 0 0 1 5.91 29.862L.796 28.2Zm8.847 17.363 10.998 3.574 1.662-5.114-10.999-3.574-1.661 5.114Zm9.654-.564-6.758 9.302 4.35 3.161 6.758-9.302-4.35-3.16Zm-6.758 9.302c-4.473 6.157-3.109 14.774 3.048 19.247l3.16-4.35a8.402 8.402 0 0 1-1.858-11.736l-4.35-3.16Zm3.048 19.247c6.157 4.473 14.774 3.108 19.247-3.048l-4.35-3.16a8.402 8.402 0 0 1-11.736 1.858l-3.16 4.35ZM34.834 70.5l6.257-8.612-4.35-3.16-6.257 8.611 4.35 3.16Zm1.906-8.612 6.451 8.878 4.35-3.16-6.45-8.879-4.35 3.16Zm6.451 8.878c4.473 6.157 13.09 7.522 19.247 3.049l-3.16-4.35a8.402 8.402 0 0 1-11.737-1.86l-4.35 3.161Zm19.247 3.049c6.156-4.473 7.521-13.09 3.048-19.247l-4.35 3.16a8.402 8.402 0 0 1-1.859 11.736l3.16 4.35Zm3.048-19.247-6.776-9.327-4.35 3.16 6.776 9.328 4.35-3.161Zm-8.12-5.19 10.945-3.556-1.661-5.114-10.946 3.557 1.662 5.114Zm10.945-3.556C75.55 43.47 79.51 35.697 77.158 28.46l-5.114 1.662a8.402 8.402 0 0 1-5.394 10.587l1.661 5.114Zm8.847-17.363c-2.351-7.237-10.125-11.198-17.362-8.846l1.661 5.114a8.402 8.402 0 0 1 10.587 5.394l5.114-1.662Zm-17.362-8.846-10.29 3.343 1.662 5.114 10.29-3.343-1.662-5.114Zm-12.147-5.24v11.14h5.377v-11.14h-5.377Zm-8.402-8.402a8.402 8.402 0 0 1 8.402 8.402h5.377c0-7.61-6.17-13.779-13.78-13.779v5.377Z"/><g filter="url(#b)"><circle cx="36.415" cy="40.251" r="8.738" fill="#F9E174"/></g><circle cx="36.415" cy="40.251" r="8.738" stroke="#1F2024" stroke-width="5.377"/><defs><filter id="a" width="77.719" height="75.853" x=".118" y=".594" color-interpolation-filters="sRGB" filterUnits="userSpaceOnUse"><feFlood flood-opacity="0" result="BackgroundImageFix"/><feBlend in="SourceGraphic" in2="BackgroundImageFix" result="shape"/><feColorMatrix in="SourceAlpha" result="hardAlpha" values="0 0 0 0 0 0 0 0 0 0 0 0 0 0 0 0 0 0 127 0"/><feOffset dx="10.755"/><feComposite in2="hardAlpha" k2="-1" k3="1" operator="arithmetic"/><feColorMatrix values="0 0 0 0 0 0 0 0 0 0 0 0 0 0 0 0 0 0 0.25 0"/><feBlend in2="shape" result="effect1_innerShadow"/><feColorMatrix in="SourceAlpha" result="hardAlpha" values="0 0 0 0 0 0 0 0 0 0 0 0 0 0 0 0 0 0 127 0"/><feOffset dx="-10.755" dy="5.377"/><feComposite in2="hardAlpha" k2="-1" k3="1" operator="arithmetic"/><feColorMatrix values="0 0 0 0 1 0 0 0 0 1 0 0 0 0 1 0 0 0 0.25 0"/><feBlend in2="effect1_innerShadow" result="effect2_innerShadow"/></filter><filter id="b" width="22.853" height="22.853" x="24.988" y="28.824" color-interpolation-filters="sRGB" filterUnits="userSpaceOnUse"><feFlood flood-opacity="0" result="BackgroundImageFix"/><feBlend in="SourceGraphic" in2="BackgroundImageFix" result="shape"/><feColorMatrix in="SourceAlpha" result="hardAlpha" values="0 0 0 0 0 0 0 0 0 0 0 0 0 0 0 0 0 0 127 0"/><feOffset dx="10.755"/><feComposite in2="hardAlpha" k2="-1" k3="1" operator="arithmetic"/><feColorMatrix values="0 0 0 0 0 0 0 0 0 0 0 0 0 0 0 0 0 0 0.25 0"/><feBlend in2="shape" result="effect1_innerShadow"/><feColorMatrix in="SourceAlpha" result="hardAlpha" values="0 0 0 0 0 0 0 0 0 0 0 0 0 0 0 0 0 0 127 0"/><feOffset dx="-10.755" dy="5.377"/><feComposite in2="hardAlpha" k2="-1" k3="1" operator="arithmetic"/><feColorMatrix values="0 0 0 0 1 0 0 0 0 1 0 0 0 0 1 0 0 0 0.25 0"/><feBlend in2="effect1_innerShadow" result="effect2_innerShadow"/></filter></defs></svg>
